X: 918
T: Alistair Hunter's
R: reel
M: 4/4
K: Eminor
A|"G"B2BA "^em"GEB,E|"G"GFGA BABc|d2dB "D"ABAF|DFAF dAFA|
"G"B2BA "^em"GEB,E|"G"GFGA BABc|dedB "D"ABAF|"^em"GEED E3:|
|:B|"^em"e2ef "C"gage|"G"dedB GABd|"^em"e2ef "C"gfed|"^em"Beed e2ef|
gfeg "D"fedf|"^em"eBBA "G"GABd|efge dBAF|"^em"GEED E3:|

